img/ok-white.svg

<svg width="20" height="19" viewBox="0 0 20 19" fill="none" xmlns="http://www.w3.org/2000/svg">
<path d="M9.11346 0.314453H10.2859C10.3385 0.327941 10.3918 0.338203 10.4457 0.345181C12.4095 0.498822 14.1747 1.17638 15.6661 2.44085C18.3824 4.74547 19.4968 7.67694 18.9331 11.1733C18.2465 15.4399 14.4345 18.7094 10.0588 18.8415C7.76362 18.9112 5.69451 18.2638 3.893 16.8519C2.02614 15.3877 0.875427 13.4851 0.456939 11.1605C0.397303 10.8297 0.362559 10.4947 0.316406 10.1603V9.00184C0.343372 8.78162 0.368263 8.56089 0.39834 8.34118C0.666442 6.45652 1.43548 4.79565 2.72725 3.38574C4.17925 1.8058 5.96832 0.818908 8.10121 0.454267C8.43672 0.396907 8.77587 0.360545 9.11346 0.314453ZM10.3726 12.2242C10.6785 12.173 10.9497 12.133 11.2168 12.0767C12.0392 11.9041 12.7772 11.5646 13.3818 10.9746C13.5374 10.8209 13.6333 10.6489 13.6188 10.4281C13.5789 9.81358 13.0027 9.46737 12.4344 9.71883C12.3408 9.76255 12.2512 9.81395 12.1663 9.87247C11.1686 10.5316 10.0749 10.7354 8.89929 10.5382C8.28997 10.4333 7.71081 10.1996 7.20148 9.85301C6.98524 9.70859 6.75396 9.59694 6.48378 9.63433C6.12648 9.68093 5.92683 9.91447 5.81793 10.231C5.70229 10.5669 5.84334 10.8332 6.09122 11.0504C6.64691 11.5456 7.32442 11.8882 8.05609 12.0439C8.37553 12.1131 8.69808 12.1674 9.01908 12.2283L9.07094 12.2867C8.9816 12.3404 8.89711 12.4015 8.81839 12.4695C8.09239 13.184 7.36328 13.8979 6.64506 14.6205C6.2945 14.9739 6.30798 15.444 6.65439 15.7769C7.0008 16.1098 7.43899 16.1103 7.80769 15.7631C7.85955 15.7119 7.91141 15.6606 7.96326 15.6094C8.47803 15.1004 8.99073 14.5915 9.50135 14.0828C9.67663 13.9086 9.73574 13.9091 9.90998 14.0781C9.95769 14.1247 10.0038 14.1734 10.051 14.2205C10.5727 14.7371 11.0946 15.2537 11.6166 15.7702C11.808 15.9592 12.0315 16.0663 12.3115 16.0069C12.472 15.9784 12.6213 15.9062 12.7426 15.7986C12.8638 15.6909 12.9523 15.552 12.9981 15.3974C13.1018 15.0783 12.9779 14.8228 12.7507 14.598C12.0306 13.8851 11.3112 13.1713 10.5924 12.4567C10.5245 12.3891 10.4602 12.3159 10.3726 12.2242ZM9.68804 9.65737C11.5181 9.65481 13.0002 8.20393 12.9981 6.41708C12.9981 4.59131 11.5243 3.13121 9.69063 3.13531C8.82205 3.14606 7.99274 3.49436 7.38237 4.10475C6.772 4.71515 6.42974 5.53847 6.42974 6.39634C6.42974 7.25421 6.772 8.07753 7.38237 8.68793C7.99274 9.29832 8.82205 9.64662 9.69063 9.65737H9.68804Z" fill="white"/>
<path d="M9.69517 7.99086C9.37563 7.99015 9.06349 7.89583 8.79826 7.71984C8.53303 7.54385 8.32662 7.29411 8.20517 7.00222C8.08372 6.71033 8.05269 6.38941 8.116 6.0801C8.17931 5.77078 8.33411 5.48696 8.56082 5.26457C8.78753 5.04219 9.07595 4.89122 9.38957 4.83079C9.70319 4.77035 10.0279 4.80317 10.3227 4.92508C10.6174 5.04699 10.8689 5.25252 11.0453 5.51564C11.2217 5.77877 11.3151 6.08766 11.3136 6.40323C11.3145 6.61286 11.2731 6.82056 11.1919 7.01426C11.1107 7.20796 10.9914 7.38378 10.8408 7.53151C10.6902 7.67924 10.5114 7.79593 10.3147 7.87479C10.118 7.95364 9.90742 7.9931 9.69517 7.99086Z" fill="white"/>
</svg>

<svg width="20" height="19" fill="none" xmlns="http://www.w3.org/2000/svg"><path d="M9.113.314h1.173c.053.014.106.024.16.031 1.963.154 3.729.831 5.22 2.096 2.716 2.304 3.83 5.236 3.267 8.732-.686 4.267-4.498 7.536-8.874 7.668-2.295.07-4.364-.577-6.166-1.99-1.867-1.463-3.018-3.366-3.436-5.69-.06-.331-.094-.666-.14-1V9c.026-.22.051-.44.081-.66.268-1.884 1.037-3.545 2.33-4.955C4.178 1.806 5.967.819 8.1.454c.336-.057.675-.093 1.012-.14zm1.26 11.91c.306-.051.577-.091.844-.147.822-.173 1.56-.512 2.165-1.102.155-.154.251-.326.237-.547-.04-.614-.616-.96-1.185-.71a1.857 1.857 0 00-.268.154c-.997.66-2.091.863-3.267.666a4.321 4.321 0 01-1.698-.685c-.216-.144-.447-.256-.717-.219-.358.047-.557.28-.666.597-.116.336.025.602.273.82a4.298 4.298 0 001.965.993c.32.07.642.123.963.184l.052.059c-.09.053-.174.114-.253.182-.726.715-1.455 1.429-2.173 2.152-.35.353-.337.823.01 1.156.346.333.784.333 1.153-.014l.155-.154a556.48 556.48 0 001.538-1.526c.176-.174.235-.174.409-.005.048.047.094.095.141.143l1.566 1.55c.191.188.414.295.694.236a.866.866 0 00.687-.61c.104-.319-.02-.574-.247-.799l-2.159-2.141c-.068-.068-.132-.141-.22-.233zm-.685-2.567c1.83-.002 3.312-1.453 3.31-3.24a3.28 3.28 0 00-3.307-3.282 3.323 3.323 0 00-2.309.97 3.24 3.24 0 00-.952 2.291c0 .858.342 1.682.952 2.292.61.61 1.44.959 2.309.97h-.003z" fill="#fff"/><path d="M9.695 7.99a1.63 1.63 0 01-.897-.27 1.6 1.6 0 01-.593-.718 1.576 1.576 0 01.356-1.737 1.634 1.634 0 011.762-.34c.294.122.546.328.722.59.177.264.27.573.269.888a1.563 1.563 0 01-.473 1.129 1.603 1.603 0 01-1.146.459z" fill="#fff"/></svg>
